**harm	**harte	**silbe	**rhyme	**timestamp	**phrase	**leadinstrument	**kern
*M4/4	*M4/4	*	*	*	*	*	*
*	*	*	*	*	*	*	*
*	*	*	*	*	*	*	*
*g:	*g:	*	*	*g:	*g:	*g:	*g:
*	*	*	*	*	*	*	*
*	*	*	*	*	*	*	*
1r;	N	.	.	0	.	r	1r;
=1	=1	=1	=1	=1	=1	=1	=1
*>Letter>A	*>Letter>A	*>Letter>A	*>Letter>A	*>Letter>A	*>Letter>A	*>Letter>A	*>Letter>A
*>Label>Intro	*>Label>Intro	*>Label>Intro	*>Label>Intro	*>Label>Intro	*>Label>Intro	*>Label>Intro	*>Label>Intro
1i	G:1	.	.	0.511	newline	r	1G 1b- 1dd
=2	=2	=2	=2	=2	=2	=2	=2
1i	G:1	.	.	3.897	.	r	1G 1b- 1dd
=3	=3	=3	=3	=3	=3	=3	=3
1i	G:1	.	.	.	.	r	1G 1b- 1dd
=4	=4	=4	=4	=4	=4	=4	=4
1i	G:1	.	.	.	.	r	1G 1b- 1dd
=5	=5	=5	=5	=5	=5	=5	=5
*>Letter>B	*>Letter>B	*>Letter>B	*>Letter>B	*>Letter>B	*>Letter>B	*>Letter>B	*>Letter>B
*>Label>Trans	*>Label>Trans	*>Label>Trans	*>Label>Trans	*>Label>Trans	*>Label>Trans	*>Label>Trans	*>Label>Trans
2i	G:1	.	.	7.284	newline	r	1G 1b- 1dd
2-III	B-:1	.	.	8.113	.	r	2B-- 2dd- 2ff-
=6	=6	=6	=6	=6	=6	=6	=6
2-VI	E-:1	.	.	8.942	.	r	1E-- 1g- 1b--
2iv	C:1	.	.	9.772	.	r	2C 2e- 2g
=7	=7	=7	=7	=7	=7	=7	=7
2i	G:1	.	.	10.601	.	r	1G 1b- 1dd
2-III	B-:1	.	.	11.431	.	r	2B-- 2dd- 2ff-
=8	=8	=8	=8	=8	=8	=8	=8
2-VI	E-:1	.	.	12.26	.	r	2E-- 2g- 2b--
2iv	C:1	.	.	13.089	.	r	2C 2e- 2g
.	.	Some-	.	.	.	.	.
.	.	-times	.	.	.	.	.
=9	=9	=9	=9	=9	=9	=9	=9
*>Letter>C	*>Letter>C	*>Letter>C	*>Letter>C	*>Letter>C	*>Letter>C	*>Letter>C	*>Letter>C
*>Label>Verse	*>Label>Verse	*>Label>Verse	*>Label>Verse	*>Label>Verse	*>Label>Verse	*>Label>Verse	*>Label>Verse
2i	G:1	_	.	13.919	newline	voice	2G 2b- 2dd
2-III	B-:1	I	.	14.748	.	voice	2B-- 2dd- 2ff-
.	.	feel	.	.	.	.	.
=10	=10	=10	=10	=10	=10	=10	=10
2-VI	E-:1	_	.	15.578	.	voice	2E-- 2g- 2b--
.	.	I've	.	.	.	.	.
2iv	C:1	got	.	16.408	.	voice	2C 2e- 2g
.	.	to	.	.	.	.	.
=11	=11	=11	=11	=11	=11	=11	=11
2i	G:1	.	.	17.237	.	voice	2G 2b- 2dd
2-III	B-:1	Run	.	18.067	.	voice	2B-- 2dd- 2ff-
.	.	a-	.	.	.	.	.
.	.	-way,	.	.	.	.	.
=12	=12	=12	=12	=12	=12	=12	=12
2-VI	E-:1	_	.	18.896	.	voice	2E-- 2g- 2b--
.	.	I've	.	.	.	.	.
2iv	C:1	got	.	19.726	.	voice	2C 2e- 2g
.	.	to	.	.	.	.	.
=13	=13	=13	=13	=13	=13	=13	=13
2i	G:1	.	.	20.556	.	voice	2G 2b- 2dd
2-III	B-:1	Get	.	21.385	.	voice	2B-- 2dd- 2ff-
.	.	a-	.	.	.	.	.
.	.	-way	A	.	.	.	.
=14	=14	=14	=14	=14	=14	=14	=14
2-VI	E-:1	_	.	22.215	.	voice	2E-- 2g- 2b--
.	.	from	.	.	.	.	.
.	.	the	.	.	.	.	.
2iv	C:1	pain	A	23.044	.	voice	2C 2e- 2g
.	.	you	.	.	.	.	.
=15	=15	=15	=15	=15	=15	=15	=15
1i	G:1	drive	.	23.874	.	voice	1G 1b- 1dd
.	.	_	.	.	.	.	.
.	.	in-	.	.	.	.	.
.	.	_	.	.	.	.	.
.	.	-to	.	.	.	.	.
.	.	the	.	.	.	.	.
=16	=16	=16	=16	=16	=16	=16	=16
1ib	G:min/b3	heart	.	25.533	.	voice	1g 1B- 1dd
.	.	_	.	.	.	.	.
.	.	of	.	.	.	.	.
.	.	me	.	.	.	.	.
.	.	_	.	.	.	.	.
.	.	The	.	.	.	.	.
.	.	love	.	.	.	.	.
=17	=17	=17	=17	=17	=17	=17	=17
1i	G:1	_	.	27.192	newline	voice	1G 1b- 1dd
.	.	we	.	.	.	.	.
.	.	share	B	.	.	.	.
=18	=18	=18	=18	=18	=18	=18	=18
1ib	G:min/b3	_	.	28.846	.	voice	1g 1B- 1dd
.	.	.	.	.	.	.	.
.	.	Seems	.	.	.	.	.
.	.	to	.	.	.	.	.
.	.	go	.	.	.	.	.
=19	=19	=19	=19	=19	=19	=19	=19
1i	G:1	_	.	30.5	.	voice	1G 1b- 1dd
.	.	.	.	.	.	.	.
.	.	no-	.	.	.	.	.
.	.	-where	B	.	.	.	.
=20	=20	=20	=20	=20	=20	=20	=20
1ib	G:min/b3	_	.	32.154	.	voice	1g 1B- 1dd
.	.	.	.	.	.	.	.
.	.	And	.	.	.	.	.
.	.	I've	.	.	.	.	.
.	.	lost	.	.	.	.	.
=21	=21	=21	=21	=21	=21	=21	=21
1i	G:1	_	.	33.808	.	voice	1G 1b- 1dd
.	.	.	.	.	.	.	.
.	.	my	.	.	.	.	.
.	.	light	C	.	.	.	.
=22	=22	=22	=22	=22	=22	=22	=22
1ib	G:min/b3	_	.	35.462	.	voice	1g 1B- 1dd
.	.	.	.	.	.	.	.
.	.	For	.	.	.	.	.
.	.	I	.	.	.	.	.
.	.	toss	.	.	.	.	.
=23	=23	=23	=23	=23	=23	=23	=23
1i	G:1	_	.	37.117	.	voice	1G 1b- 1dd
.	.	and	.	.	.	.	.
.	.	turn,	.	.	.	.	.
.	.	I	.	.	.	.	.
.	.	can't	.	.	.	.	.
=24	=24	=24	=24	=24	=24	=24	=24
1-III	B-:1	sleep	.	38.771	.	voice	1B-- 1dd- 1ff-
.	.	at	.	.	.	.	.
.	.	night	C	.	.	.	.
.	.	.	.	.	.	.	.
=25	=25	=25	=25	=25	=25	=25	=25
*>Letter>D	*>Letter>D	*>Letter>D	*>Letter>D	*>Letter>D	*>Letter>D	*>Letter>D	*>Letter>D
*>Label>Chorus	*>Label>Chorus	*>Label>Chorus	*>Label>Chorus	*>Label>Chorus	*>Label>Chorus	*>Label>Chorus	*>Label>Chorus
1I	G:1	.	.	40.425	newline	voice	1G 1b 1dd
.	.	Once	.	.	.	.	.
.	.	_	.	.	.	.	.
.	.	I	.	.	.	.	.
=26	=26	=26	=26	=26	=26	=26	=26
1I	G:1	ran	.	.	.	voice	1G 1b 1dd
.	.	to	.	.	.	.	.
.	.	you	.	.	.	.	.
.	.	_	.	.	.	.	.
.	.	.	.	.	.	.	.
=27	=27	=27	=27	=27	=27	=27	=27
1-III	B-:1	.	.	43.757	.	voice	1B-- 1dd- 1ff-
.	.	Now	.	.	.	.	.
.	.	_	.	.	.	.	.
.	.	I'll	.	.	.	.	.
=28	=28	=28	=28	=28	=28	=28	=28
1-III	B-:1	run	.	.	.	voice	1B-- 1dd- 1ff-
.	.	from	.	.	.	.	.
.	.	you	.	.	.	.	.
.	.	_	.	.	.	.	.
=29	=29	=29	=29	=29	=29	=29	=29
1-VI	E-:1	.	.	47.09	.	voice	1E-- 1g- 1b--
.	.	This	.	.	.	.	.
.	.	tain-	.	.	.	.	.
.	.	-ted	.	.	.	.	.
.	.	love	.	.	.	.	.
=30	=30	=30	=30	=30	=30	=30	=30
1-VI	E-:1	_	.	.	.	voice	1E-- 1g- 1b--
.	.	you've	.	.	.	.	.
.	.	gi-	.	.	.	.	.
.	.	-ven	.	.	.	.	.
.	.	.	.	.	.	.	.
.	.	I	.	.	.	.	.
=31	=31	=31	=31	=31	=31	=31	=31
1iv	C:min	give	.	50.422	.	voice	1C 1e- 1g
.	.	you	.	.	.	.	.
.	.	all	.	.	.	.	.
.	.	_	.	.	.	.	.
.	.	a	.	.	.	.	.
.	.	boy	.	.	.	.	.
=32	=32	=32	=32	=32	=32	=32	=32
1iv	C:min	_	.	.	.	voice	1C 1e- 1g
.	.	could	.	.	.	.	.
.	.	give	.	.	.	.	.
.	.	you	.	.	.	.	.
.	.	.	.	.	.	.	.
=33	=33	=33	=33	=33	=33	=33	=33
1iv	C:min	Take	.	53.755	.	voice	1C 1e- 1g
.	.	my	.	.	.	.	.
.	.	tears	D	.	.	.	.
.	.	and	.	.	.	.	.
=34	=34	=34	=34	=34	=34	=34	=34
1iv	C:min	that's	.	.	.	voice	1C 1e- 1g
.	.	not	.	.	.	.	.
.	.	near-	D	.	.	.	.
.	.	-ly	.	.	.	.	.
.	.	all	.	.	.	.	.
=35	=35	=35	=35	=35	=35	=35	=35
*>Letter>B	*>Letter>B	*>Letter>B	*>Letter>B	*>Letter>B	*>Letter>B	*>Letter>B	*>Letter>B
*>Label>Trans	*>Label>Trans	*>Label>Trans	*>Label>Trans	*>Label>Trans	*>Label>Trans	*>Label>Trans	*>Label>Trans
2i	G:1	_	.	57.088	newline	voice	2G 2b- 2dd
.	.	.	.	.	.	.	.
2-III	B-:1	.	.	57.906	.	voice	2B-- 2dd- 2ff-
.	.	Tain-	.	.	.	.	.
.	.	-ted	.	.	.	.	.
=36	=36	=36	=36	=36	=36	=36	=36
2-VI	E-:1	love	.	58.725	.	voice	2E-- 2g- 2b--
.	.	_	.	.	.	.	.
2iv	C:1	.	.	59.544	.	voice	2C 2e- 2g
=37	=37	=37	=37	=37	=37	=37	=37
2i	G:1	.	.	60.362	.	voice	2G 2b- 2dd
.	.	Tain-	.	.	.	.	.
2-III	B-:1	_	.	61.181	.	voice	2B-- 2dd- 2ff-
.	.	-ted	.	.	.	.	.
.	.	love	.	.	.	.	.
=38	=38	=38	=38	=38	=38	=38	=38
2-VI	E-:1	_	.	62	.	voice	2E-- 2g- 2b--
2iv	C:1	.	.	62.818	.	voice	2C 2e- 2g
=39	=39	=39	=39	=39	=39	=39	=39
*>Letter>C	*>Letter>C	*>Letter>C	*>Letter>C	*>Letter>C	*>Letter>C	*>Letter>C	*>Letter>C
*>Label>Verse	*>Label>Verse	*>Label>Verse	*>Label>Verse	*>Label>Verse	*>Label>Verse	*>Label>Verse	*>Label>Verse
2i	G:1	Now	.	63.637	newline	voice	2G 2b- 2dd
2-III	B-:1	I	.	64.471	.	voice	2B-- 2dd- 2ff-
.	.	know	.	.	.	.	.
=40	=40	=40	=40	=40	=40	=40	=40
2-VI	E-:1	_	.	65.304	.	voice	2E-- 2g- 2b--
.	.	I've	.	.	.	.	.
2iv	C:1	got	.	66.138	.	voice	2C 2e- 2g
.	.	to	.	.	.	.	.
=41	=41	=41	=41	=41	=41	=41	=41
2i	G:1	.	.	66.971	.	voice	2G 2b- 2dd
2-III	B-:1	Run	.	67.805	.	voice	2B-- 2dd- 2ff-
.	.	a-	.	.	.	.	.
.	.	-way,	.	.	.	.	.
=42	=42	=42	=42	=42	=42	=42	=42
2-VI	E-:1	_	.	68.638	.	voice	2E-- 2g- 2b--
.	.	I've	.	.	.	.	.
2iv	C:1	got	.	69.472	.	voice	2C 2e- 2g
.	.	to	.	.	.	.	.
=43	=43	=43	=43	=43	=43	=43	=43
2i	G:1	.	.	70.306	.	voice	2G 2b- 2dd
2-III	B-:1	Get	.	71.139	.	voice	2B-- 2dd- 2ff-
.	.	a-	.	.	.	.	.
.	.	-way	.	.	.	.	.
=44	=44	=44	=44	=44	=44	=44	=44
2-VI	E-:1	_	.	71.973	.	voice	2E-- 2g- 2b--
.	.	.	.	.	.	.	.
.	.	.	.	.	.	.	.
2iv	C:1	you	.	72.806	.	voice	2C 2e- 2g
.	.	don't	.	.	.	.	.
.	.	real-	.	.	.	.	.
=45	=45	=45	=45	=45	=45	=45	=45
1i	G:1	_	.	73.64	.	voice	1G 1b- 1dd
.	.	-ly	.	.	.	.	.
.	.	want	.	.	.	.	.
.	.	_	.	.	.	.	.
.	.	a-	.	.	.	.	.
.	.	-ny	.	.	.	.	.
=46	=46	=46	=46	=46	=46	=46	=46
1ib	G:min/b3	more	.	75.307	.	voice	1g 1B- 1dd
.	.	from	.	.	.	.	.
.	.	me	.	.	.	.	.
.	.	_	.	.	.	.	.
.	.	To	.	.	.	.	.
.	.	make	.	.	.	.	.
=47	=47	=47	=47	=47	=47	=47	=47
1i	G:1	_	.	76.974	newline	voice	1G 1b- 1dd
.	.	things	.	.	.	.	.
.	.	right	C	.	.	.	.
=48	=48	=48	=48	=48	=48	=48	=48
1ib	G:min/b3	_	.	78.626	.	voice	1g 1B- 1dd
.	.	You	.	.	.	.	.
.	.	need	.	.	.	.	.
.	.	some-	.	.	.	.	.
.	.	-one	.	.	.	.	.
=49	=49	=49	=49	=49	=49	=49	=49
1i	G:1	_	.	80.278	.	voice	1G 1b- 1dd
.	.	.	.	.	.	.	.
.	.	to	.	.	.	.	.
.	.	hold	.	.	.	.	.
.	.	you	.	.	.	.	.
.	.	tight	C	.	.	.	.
=50	=50	=50	=50	=50	=50	=50	=50
1ib	G:min/b3	_	.	81.93	.	voice	1g 1B- 1dd
.	.	.	.	.	.	.	.
.	.	And	.	.	.	.	.
.	.	you	.	.	.	.	.
.	.	think	.	.	.	.	.
=51	=51	=51	=51	=51	=51	=51	=51
1i	G:1	_	.	83.581	.	voice	1G 1b- 1dd
.	.	love	.	.	.	.	.
.	.	.	.	.	.	.	.
.	.	is	.	.	.	.	.
.	.	to	.	.	.	.	.
.	.	pray	A	.	.	.	.
=52	=52	=52	=52	=52	=52	=52	=52
1ib	G:min/b3	_	.	85.233	.	voice	1g 1B- 1dd
.	.	.	.	.	.	.	.
.	.	But	.	.	.	.	.
.	.	I'm	.	.	.	.	.
.	.	sor-	.	.	.	.	.
=53	=53	=53	=53	=53	=53	=53	=53
1i	G:1	_	.	86.885	.	voice	1G 1b- 1dd
.	.	-ry,	.	.	.	.	.
.	.	I	.	.	.	.	.
.	.	don't	.	.	.	.	.
.	.	.	.	.	.	.	.
=54	=54	=54	=54	=54	=54	=54	=54
1-III	B-:1	pray	A	88.537	.	voice	1B-- 1dd- 1ff-
.	.	that	.	.	.	.	.
.	.	way	A	.	.	.	.
.	.	.	.	.	.	.	.
=55	=55	=55	=55	=55	=55	=55	=55
*>Letter>D	*>Letter>D	*>Letter>D	*>Letter>D	*>Letter>D	*>Letter>D	*>Letter>D	*>Letter>D
*>Label>Chorus	*>Label>Chorus	*>Label>Chorus	*>Label>Chorus	*>Label>Chorus	*>Label>Chorus	*>Label>Chorus	*>Label>Chorus
1I	G:1	.	.	90.188	newline	voice	1G 1b 1dd
.	.	Once	.	.	.	.	.
.	.	_	.	.	.	.	.
.	.	I	.	.	.	.	.
=56	=56	=56	=56	=56	=56	=56	=56
1I	G:1	ran	.	.	.	voice	1G 1b 1dd
.	.	to	.	.	.	.	.
.	.	you	.	.	.	.	.
.	.	_	.	.	.	.	.
.	.	.	.	.	.	.	.
=57	=57	=57	=57	=57	=57	=57	=57
1-III	B-:1	.	.	93.513	.	voice	1B-- 1dd- 1ff-
.	.	Now	.	.	.	.	.
.	.	_	.	.	.	.	.
.	.	I'll	.	.	.	.	.
=58	=58	=58	=58	=58	=58	=58	=58
1-III	B-:1	run	.	.	.	voice	1B-- 1dd- 1ff-
.	.	from	.	.	.	.	.
.	.	you	.	.	.	.	.
.	.	_	.	.	.	.	.
=59	=59	=59	=59	=59	=59	=59	=59
1-VI	E-:1	.	.	96.838	.	voice	1E-- 1g- 1b--
.	.	This	.	.	.	.	.
.	.	tain-	.	.	.	.	.
.	.	-ted	.	.	.	.	.
.	.	love	.	.	.	.	.
=60	=60	=60	=60	=60	=60	=60	=60
1-VI	E-:1	_	.	.	.	voice	1E-- 1g- 1b--
.	.	you've	.	.	.	.	.
.	.	gi-	.	.	.	.	.
.	.	-ven	.	.	.	.	.
.	.	.	.	.	.	.	.
.	.	I	.	.	.	.	.
=61	=61	=61	=61	=61	=61	=61	=61
1iv	C:min	give	.	100.163	.	voice	1C 1e- 1g
.	.	you	.	.	.	.	.
.	.	all	.	.	.	.	.
.	.	_	.	.	.	.	.
.	.	a	.	.	.	.	.
.	.	boy	.	.	.	.	.
=62	=62	=62	=62	=62	=62	=62	=62
1iv	C:min	_	.	.	.	voice	1C 1e- 1g
.	.	could	.	.	.	.	.
.	.	give	.	.	.	.	.
.	.	you	.	.	.	.	.
.	.	.	.	.	.	.	.
=63	=63	=63	=63	=63	=63	=63	=63
1iv	C:min	Take	.	103.487	.	voice	1C 1e- 1g
.	.	my	.	.	.	.	.
.	.	tears	D	.	.	.	.
.	.	and	.	.	.	.	.
=64	=64	=64	=64	=64	=64	=64	=64
1iv	C:min	that's	.	.	.	voice	1C 1e- 1g
.	.	not	.	.	.	.	.
.	.	near-	D	.	.	.	.
.	.	-ly	.	.	.	.	.
.	.	all	.	.	.	.	.
=65	=65	=65	=65	=65	=65	=65	=65
*>Letter>B	*>Letter>B	*>Letter>B	*>Letter>B	*>Letter>B	*>Letter>B	*>Letter>B	*>Letter>B
*>Label>Trans	*>Label>Trans	*>Label>Trans	*>Label>Trans	*>Label>Trans	*>Label>Trans	*>Label>Trans	*>Label>Trans
2i	G:1	_	.	106.812	newline	voice	2G 2b- 2dd
.	.	.	.	.	.	.	.
2-III	B-:1	.	.	107.637	.	voice	2B-- 2dd- 2ff-
.	.	Tain-	.	.	.	.	.
.	.	-ted	.	.	.	.	.
=66	=66	=66	=66	=66	=66	=66	=66
2-VI	E-:1	love	.	108.461	.	voice	2E-- 2g- 2b--
.	.	_	.	.	.	.	.
2iv	C:1	.	.	109.286	.	voice	2C 2e- 2g
=67	=67	=67	=67	=67	=67	=67	=67
2i	G:1	.	.	110.111	.	voice	2G 2b- 2dd
.	.	Tain-	.	.	.	.	.
2-III	B-:1	_	.	110.935	.	voice	2B-- 2dd- 2ff-
.	.	-ted	.	.	.	.	.
.	.	love	.	.	.	.	.
=68	=68	=68	=68	=68	=68	=68	=68
2-VI	E-:1	_	.	111.76	.	voice	2E-- 2g- 2b--
2iv	C:1	.	.	112.585	.	voice	2C 2e- 2g
.	.	Don't	.	.	.	.	.
=69	=69	=69	=69	=69	=69	=69	=69
*>Letter>C	*>Letter>C	*>Letter>C	*>Letter>C	*>Letter>C	*>Letter>C	*>Letter>C	*>Letter>C
*>Label>Verse	*>Label>Verse	*>Label>Verse	*>Label>Verse	*>Label>Verse	*>Label>Verse	*>Label>Verse	*>Label>Verse
2i	G:1	touch	.	113.409	newline	voice	2G 2b- 2dd
2-III	B-:1	me,	.	114.238	.	voice	2B-- 2dd- 2ff-
.	.	please	E	.	.	.	.
=70	=70	=70	=70	=70	=70	=70	=70
2-VI	E-:1	_	.	115.067	.	voice	2E-- 2g- 2b--
.	.	I	.	.	.	.	.
2iv	C:1	can-	.	115.896	.	voice	2C 2e- 2g
.	.	-not	.	.	.	.	.
.	.	stand	.	.	.	.	.
=71	=71	=71	=71	=71	=71	=71	=71
2i	G:1	_	.	116.725	.	voice	3...G 3...b- 3...dd
.	.	the	.	.	.	.	.
.	.	way	.	.	.	.	.
2-III	B-:1	.	.	117.554	.	voice	4.B-- 4.dd- 4.ff-
.	.	you	.	.	.	.	.
.	.	.	.	.	.	.	.
=72	=72	=72	=72	=72	=72	=72	=72
2-VI	E-:1	tease	E	118.383	.	voice	2E-- 2g- 2b--
2iv	C:1	.	.	119.212	.	voice	2C 2e- 2g
.	.	I	.	.	.	.	.
.	.	love	.	.	.	.	.
=73	=73	=73	=73	=73	=73	=73	=73
2i	G:1	_	.	120.041	.	voice	2G 2b- 2dd
.	.	you	.	.	.	.	.
.	.	though	F	.	.	.	.
.	.	you	.	.	.	.	.
2-III	B-:1	hurt	.	120.87	.	voice	2B-- 2dd- 2ff-
.	.	me	.	.	.	.	.
.	.	so	F	.	.	.	.
=74	=74	=74	=74	=74	=74	=74	=74
2-VI	E-:1	_	.	121.699	.	voice	2E-- 2g- 2b--
.	.	.	.	.	.	.	.
2iv	C:1	Now	.	122.527	.	voice	2C 2e- 2g
.	.	I'm	.	.	.	.	.
=75	=75	=75	=75	=75	=75	=75	=75
1i	G:1	gon-	.	123.356	.	voice	1G 1b- 1dd
.	.	-na	.	.	.	.	.
.	.	pack	.	.	.	.	.
.	.	my	.	.	.	.	.
.	.	.	.	.	.	.	.
=76	=76	=76	=76	=76	=76	=76	=76
1ib	G:min/b3	things	.	125.014	.	voice	1g 1B- 1dd
.	.	and	.	.	.	.	.
.	.	go	F	.	.	.	.
.	.	_	.	.	.	.	.
.	.	.	.	.	.	.	.
=77	=77	=77	=77	=77	=77	=77	=77
*>Letter>B	*>Letter>B	*>Letter>B	*>Letter>B	*>Letter>B	*>Letter>B	*>Letter>B	*>Letter>B
*>Label>Trans	*>Label>Trans	*>Label>Trans	*>Label>Trans	*>Label>Trans	*>Label>Trans	*>Label>Trans	*>Label>Trans
2i	G:1	.	.	126.672	newline	voice	2G 2b- 2dd
.	.	.	.	.	.	.	.
.	.	Tain-	.	.	.	.	.
2-III	B-:1	_	.	127.505	.	voice	2B-- 2dd- 2ff-
.	.	-ted	.	.	.	.	.
.	.	love	.	.	.	.	.
=78	=78	=78	=78	=78	=78	=78	=78
2-VI	E-:1	_	.	128.337	.	voice	2E-- 2g- 2b--
2iv	C:1	.	.	129.17	.	voice	2C 2e- 2g
=79	=79	=79	=79	=79	=79	=79	=79
2i	G:1	.	.	130.002	.	voice	2G 2b- 2dd
.	.	.	.	.	.	.	.
.	.	Tain-	.	.	.	.	.
2-III	B-:1	_	.	130.835	.	voice	2B-- 2dd- 2ff-
.	.	-ted	.	.	.	.	.
.	.	love	.	.	.	.	.
=80	=80	=80	=80	=80	=80	=80	=80
2-VI	E-:1	_	.	131.667	.	voice	2E-- 2g- 2b--
2iv	C:1	.	.	132.5	.	voice	2C 2e- 2g
=81	=81	=81	=81	=81	=81	=81	=81
2i	G:1	.	.	133.332	newline	voice	2G 2b- 2dd
.	.	.	.	.	.	.	.
.	.	Tain-	.	.	.	.	.
2-III	B-:1	_	.	134.16	.	voice	2B-- 2dd- 2ff-
.	.	-ted	.	.	.	.	.
.	.	love	.	.	.	.	.
=82	=82	=82	=82	=82	=82	=82	=82
2-VI	E-:1	_	.	134.987	.	voice	2E-- 2g- 2b--
2iv	C:1	.	.	135.814	.	voice	2C 2e- 2g
=83	=83	=83	=83	=83	=83	=83	=83
2i	G:1	.	.	136.641	.	voice	2G 2b- 2dd
.	.	.	.	.	.	.	.
.	.	Tain-	.	.	.	.	.
2-III	B-:1	_	.	137.468	.	voice	2B-- 2dd- 2ff-
.	.	-ted	.	.	.	.	.
.	.	love	.	.	.	.	.
=84	=84	=84	=84	=84	=84	=84	=84
2-VI	E-:1	_	.	138.295	.	voice	2E-- 2g- 2b--
2iv	C:1	.	.	139.122	.	voice	2C 2e- 2g
=85	=85	=85	=85	=85	=85	=85	=85
2i	G:1	.	.	139.949	newline	voice	2G 2b- 2dd
.	.	.	.	.	.	.	.
.	.	Touch	.	.	.	.	.
2-III	B-:1	_	.	140.786	.	voice	2B-- 2dd- 2ff-
.	.	me,	.	.	.	.	.
.	.	ba-	.	.	.	.	.
.	.	-by,	.	.	.	.	.
=86	=86	=86	=86	=86	=86	=86	=86
2-VI	E-:1	tain-	.	141.622	.	voice	2E-- 2g- 2b--
.	.	-ted	.	.	.	.	.
2iv	C:1	love	.	142.459	.	voice	2C 2e- 2g
.	.	.	.	.	.	.	.
=87	=87	=87	=87	=87	=87	=87	=87
2i	G:1	.	.	143.295	.	voice	2G 2b- 2dd
.	.	.	.	.	.	.	.
.	.	Touch	.	.	.	.	.
2-III	B-:1	_	.	144.132	.	voice	2B-- 2dd- 2ff-
.	.	me,	.	.	.	.	.
.	.	ba-	.	.	.	.	.
.	.	-by,	.	.	.	.	.
=88	=88	=88	=88	=88	=88	=88	=88
2-VI	E-:1	tain-	.	144.969	.	voice	2E-- 2g- 2b--
.	.	-ted	.	.	.	.	.
2iv	C:1	love	.	145.805	.	voice	2C 2e- 2g
.	.	.	.	.	.	.	.
=89	=89	=89	=89	=89	=89	=89	=89
*>Label>>Fadeout	*>Label>>Fadeout	*>Label>>Fadeout	*>Label>>Fadeout	*>Label>>Fadeout	*>Label>>Fadeout	*>Label>>Fadeout	*>Label>>Fadeout
2i	G:1	.	.	146.642	newline	voice	2G 2b- 2dd
.	.	.	.	.	.	.	.
.	.	Tain-	.	.	.	.	.
2-III	B-:1	_	.	147.126	.	voice	2B-- 2dd- 2ff-
.	.	-ted	.	.	.	.	.
.	.	love	.	.	.	.	.
=90	=90	=90	=90	=90	=90	=90	=90
2-VI	E-:1	_	.	147.61	.	voice	2E-- 2g- 2b--
2iv	C:1	.	.	148.095	.	voice	2C 2e- 2g
=91	=91	=91	=91	=91	=91	=91	=91
2i	G:1	.	.	148.579	.	voice	2G 2b- 2dd
.	.	.	.	.	.	.	.
.	.	Tain-	.	.	.	.	.
2-III	B-:1	_	.	149.064	.	voice	2B-- 2dd- 2ff-
.	.	-ted	.	.	.	.	.
.	.	love	.	.	.	.	.
=92	=92	=92	=92	=92	=92	=92	=92
2-VI	E-:1	_	.	149.548	.	voice	2E-- 2g- 2b--
2iv	C:1	.	.	150.032	.	voice	2C 2e- 2g
=93	=93	=93	=93	=93	=93	=93	=93
2i	G:1	.	.	150.517	.	voice	2G 2b- 2dd
.	.	.	.	.	.	.	.
.	.	Tain-	.	.	.	.	.
2-III	B-:1	_	.	151.001	.	voice	2B-- 2dd- 2ff-
.	.	-ted	.	.	.	.	.
.	.	love	.	.	.	.	.
=94	=94	=94	=94	=94	=94	=94	=94
2-VI	E-:1	_	.	151.486	.	voice	2E-- 2g- 2b--
2iv	C:1	.	.	151.97	.	voice	2C 2e- 2g
=95	=95	=95	=95	=95	=95	=95	=95
2i	G:1	.	.	152.454	.	voice	2G 2b- 2dd
.	.	.	.	.	.	.	.
.	.	Tain-	.	.	.	.	.
2-III	B-:1	_	.	152.939	.	voice	2B-- 2dd- 2ff-
.	.	-ted	.	.	.	.	.
.	.	love	.	.	.	.	.
=96	=96	=96	=96	=96	=96	=96	=96
2-VI	E-:1	_	.	153.423	.	voice	2E-- 2g- 2b--
2iv	C:1	.	.	153.908	.	voice	2C 2e- 2g
1r;	N	.	.	158.267	.	r	1r;
1r;	N	.	.	161.437	.	r	1r;
*-	*-	*-	*-	*-	*-	*-	*-
!!!BillboardChartDate: 1982/01/30
!!!BillboardPeak: 8
!!!BillboardWeeksOnChart: 43
!!!COC: Soft Cell
!!!EMD: The original transcription was written at half time for some reason. I fixed this. -Nat
!!!ENC: Nathaniel Condit-Schultz
!!!EST: Awating manual error checking and editing.
!!!OTL: Tainted Love
!!!RDF**harte: Chris Harte's syntax, used by MIREX
!!!RDF**harmony: **recip + pitch class of root + harmonic quality
!!!RDF**leadinstrument: original McGill primary instrumentation annotation
!!!RDF**phrase: newline = linebreak in original McGill transcription
!!!RDF**timestamp: McGill audio timestamp in seconds
!!!RDT: 2017/01/12/
!!!SampleActualRank: 73
!!!SampleID#: 0654
!!!SampleTargetRank: 75
!!!MBID: ef4c6855-949e-4e22-b41e-8e0a2d372d5f
